images_elementary_svg/cmd/sc_printlayout.svg

<?xml version="1.0" encoding="UTF-8" standalone="no"?>
<svg
   xmlns:dc="http://purl.org/dc/elements/1.1/"
   xmlns:cc="http://creativecommons.org/ns#"
   xmlns:rdf="http://www.w3.org/1999/02/22-rdf-syntax-ns#"
   xmlns:svg="http://www.w3.org/2000/svg"
   xmlns="http://www.w3.org/2000/svg"
   xmlns:xlink="http://www.w3.org/1999/xlink"
   xmlns:sodipodi="http://sodipodi.sourceforge.net/DTD/sodipodi-0.dtd"
   xmlns:inkscape="http://www.inkscape.org/namespaces/inkscape"
   id="svg3942"
   height="16"
   width="16"
   version="1.1"
   sodipodi:docname="sc_printlayout.svg"
   inkscape:export-filename="/home/rizmut/Dokumen/Rizmut/Github/libreoffice-style-elementary/images_elementary/cmd/sc_printlayout.png"
   inkscape:export-xdpi="96"
   inkscape:export-ydpi="96"
   inkscape:version="0.92.3 (unknown)">
  <sodipodi:namedview
     pagecolor="#ffffff"
     bordercolor="#666666"
     borderopacity="1"
     objecttolerance="10"
     gridtolerance="10"
     guidetolerance="10"
     inkscape:pageopacity="0"
     inkscape:pageshadow="2"
     inkscape:window-width="1366"
     inkscape:window-height="706"
     id="namedview23"
     showgrid="true"
     inkscape:zoom="22.627417"
     inkscape:cx="6.0782321"
     inkscape:cy="7.0259959"
     inkscape:window-x="-1"
     inkscape:window-y="-1"
     inkscape:window-maximized="0"
     inkscape:current-layer="svg3942">
    <inkscape:grid
       type="xygrid"
       id="grid2302" />
  </sodipodi:namedview>
  <defs
     id="defs3944">
    <linearGradient
       gradientTransform="matrix(0.25378586,0,0,0.30501865,19.128979,-0.68547704)"
       gradientUnits="userSpaceOnUse"
       xlink:href="#linearGradient3104-9"
       id="linearGradient3092"
       y2="2.9062471"
       x2="-51.786404"
       y1="50.786446"
       x1="-51.786404" />
    <linearGradient
       id="linearGradient3104-9">
      <stop
         offset="0"
         style="stop-color:#000000;stop-opacity:0.33950618"
         id="stop3106-5" />
      <stop
         offset="1"
         style="stop-color:#000000;stop-opacity:0.24691358"
         id="stop3108-5" />
    </linearGradient>
    <linearGradient
       gradientTransform="matrix(0.24324324,0,0,0.35135133,2.1621636,-0.43242804)"
       gradientUnits="userSpaceOnUse"
       xlink:href="#linearGradient3977"
       id="linearGradient3095"
       y2="41.076912"
       x2="23.99999"
       y1="6.9230647"
       x1="23.99999" />
    <linearGradient
       id="linearGradient3977">
      <stop
         offset="0"
         style="stop-color:#ffffff;stop-opacity:1"
         id="stop3979" />
      <stop
         offset="0"
         style="stop-color:#ffffff;stop-opacity:0.23529412"
         id="stop3981" />
      <stop
         offset="1"
         style="stop-color:#ffffff;stop-opacity:0.15686275"
         id="stop3983" />
      <stop
         offset="1"
         style="stop-color:#ffffff;stop-opacity:0.39215687"
         id="stop3985" />
    </linearGradient>
    <linearGradient
       id="linearGradient3600">
      <stop
         offset="0"
         style="stop-color:#f4f4f4;stop-opacity:1"
         id="stop3602" />
      <stop
         offset="1"
         style="stop-color:#dbdbdb;stop-opacity:1"
         id="stop3604" />
    </linearGradient>
    <linearGradient
       gradientTransform="matrix(0.28571361,0,0,0.30419701,1.1428727,0.2326048)"
       gradientUnits="userSpaceOnUse"
       xlink:href="#linearGradient3600"
       id="linearGradient3940"
       y2="47.013336"
       x2="25.132275"
       y1="0.98520643"
       x1="25.132275" />
  </defs>
  <metadata
     id="metadata3947">
    <rdf:RDF>
      <cc:Work
         rdf:about="">
        <dc:format>image/svg+xml</dc:format>
        <dc:type
           rdf:resource="http://purl.org/dc/dcmitype/StillImage" />
        <dc:title></dc:title>
      </cc:Work>
    </rdf:RDF>
  </metadata>
  <g
     id="g1960"
     transform="translate(-2.000001)">
    <path
       style="display:inline;fill:url(#linearGradient3940);fill-opacity:1;stroke:none"
       id="path4160"
       d="m 3,1 c 2.2915074,0 9.999988,8.904e-4 9.999988,8.904e-4 L 13,15 C 13,15 6.3333332,15 3,15 3,10.333334 3,5.6666664 3,1 Z"
       inkscape:connector-curvature="0" />
    <path
       style="fill:none;stroke:url(#linearGradient3095);stroke-width:1;stroke-linecap:round;stroke-linejoin:miter;stroke-miterlimit:4;stroke-dasharray:none;stroke-dashoffset:0;stroke-opacity:1"
       id="rect6741-1"
       d="M 12.5,14.5 H 3.4999999 V 1.5 H 12.5 Z"
       inkscape:connector-curvature="0" />
    <path
       style="display:inline;fill:none;stroke:url(#linearGradient3092);stroke-width:0.99992192;stroke-linecap:butt;stroke-linejoin:round;stroke-miterlimit:4;stroke-dasharray:none;stroke-dashoffset:0;stroke-opacity:1"
       id="path4160-8"
       d="m 2.4999621,0.49997396 c 2.5206756,0 11.0000629,9.54e-4 11.0000629,9.54e-4 l 1.3e-5,14.99909804 c 0,0 -7.3333841,0 -11.000076,0 0,-5.000017 0,-10.000035 10e-8,-15.00005204 z"
       inkscape:connector-curvature="0" />
  </g>
  <g
     id="g1669"
     transform="matrix(0.69122442,0,0,0.69122442,4.0360144,5.0359898)">
    <path
       sodipodi:nodetypes="cccccc"
       style="fill:#505050;stroke:#565656;stroke-width:0.99970901;stroke-linecap:square"
       inkscape:connector-curvature="0"
       id="path6"
       d="m 3.3430864,14.397385 c 0.0073,0.359613 0.029665,0.914771 0.3421077,0.991264 3.3005711,0.01952 6.6179139,-0.01415 9.9188619,-0.0086 0.340644,0.01588 0.35312,-0.621029 0.342108,-0.999661 l -10.6030776,0.01695 z" />
    <g
       style="stroke-linecap:round"
       id="g14">
      <path
         sodipodi:nodetypes="ccccc"
         inkscape:connector-curvature="0"
         id="path1491"
         d="M 0.79903065,6.5559297 1.5464541,3.5049857 15.66637,3.5246047 16.380446,6.588319 Z"
         style="fill:#4f4f4f;fill-opacity:1;fill-rule:evenodd;stroke:none;stroke-width:1px;stroke-linecap:butt;stroke-linejoin:miter;stroke-opacity:1" />
      <path
         sodipodi:nodetypes="sssccss"
         style="fill:#4f4f4f;fill-opacity:1;stroke:none;stroke-width:0.99993199;stroke-linejoin:round"
         inkscape:connector-curvature="0"
         id="path8"
         d="m 1.3770374,6.5169154 14.4527176,0.015984 c 0.401774,4.443e-4 0.725767,0.3477101 0.725226,0.7796206 l -0.008,6.387314 L 0.6438133,13.683854 0.6518053,7.29654 C 0.65235373,6.8646255 0.97526357,6.5164711 1.3770374,6.5169154 Z" />
      <path
         d="m 1.3770374,6.5169154 14.4527176,0.015984 c 0.401774,4.443e-4 0.725767,0.3477101 0.725226,0.7796206 l -0.008,6.387314 L 0.6438133,13.683854 0.6518053,7.29654 C 0.65235373,6.8646255 0.97526357,6.5164711 1.3770374,6.5169154 Z"
         id="path1474"
         inkscape:connector-curvature="0"
         style="opacity:0.70999995;fill:none;fill-opacity:1;stroke:#393939;stroke-width:1.4467082;stroke-linejoin:round;stroke-miterlimit:4;stroke-dasharray:none;stroke-opacity:1"
         sodipodi:nodetypes="sssccss" />
      <rect
         style="color:#000000;display:inline;overflow:visible;visibility:visible;fill:#0cceff;fill-opacity:1;fill-rule:nonzero;stroke:none;stroke-width:1;marker:none;enable-background:accumulate"
         id="rect3991"
         y="7.1814742"
         x="11.521563"
         height="1.446708"
         width="1.4467084" />
      <path
         style="opacity:0.7;fill:none;fill-opacity:1;fill-rule:evenodd;stroke:#393939;stroke-width:1.4467082;stroke-linecap:butt;stroke-linejoin:miter;stroke-miterlimit:4;stroke-dasharray:none;stroke-opacity:1"
         d="M 0.79903065,6.5559297 1.5464541,3.5049857 15.66637,3.5246047 16.380446,6.588319 Z"
         id="path1493"
         inkscape:connector-curvature="0"
         sodipodi:nodetypes="ccccc" />
    </g>
    <path
       sodipodi:nodetypes="csssscc"
       style="fill:#e9e9e9;stroke-width:1.98724747"
       inkscape:connector-curvature="0"
       id="path16"
       d="m 13.95928,10.07489 -2.39e-4,4.719178 c -1.4e-5,0.273479 -0.06969,0.493644 -0.156251,0.493644 H 3.4946308 c -0.086562,0 -0.1562638,-0.220165 -0.15625,-0.493644 l 2.391e-4,-4.719178 z" />
    <path
       sodipodi:nodetypes="ccccc"
       style="fill:#e9e9e9;stroke:#8c8c8c;stroke-width:1.4467082;stroke-linejoin:round;stroke-miterlimit:4;stroke-dasharray:none"
       inkscape:connector-curvature="0"
       id="path4"
       d="M 3.5802832,-0.76388724 13.694766,-0.77345065 13.684616,5.3446298 3.5701358,5.3559322 Z" />
  </g>
</svg>

<?xml version="1.0" encoding="UTF-8" standalone="no"?>
<svg xmlns:rdf="http://www.w3.org/1999/02/22-rdf-syntax-ns#" xmlns="http://www.w3.org/2000/svg" height="16" width="16" version="1.1" xmlns:cc="http://creativecommons.org/ns#" xmlns:xlink="http://www.w3.org/1999/xlink" xmlns:dc="http://purl.org/dc/elements/1.1/">
 <defs>
  <linearGradient id="linearGradient3092" x1="-51.786" gradientUnits="userSpaceOnUse" y1="50.786" gradientTransform="matrix(.25379 0 0 .30502 19.129 -.68548)" x2="-51.786" y2="2.9062">
   <stop stop-opacity=".33951" offset="0"/>
   <stop stop-opacity=".24691" offset="1"/>
  </linearGradient>
  <linearGradient id="linearGradient3095" x1="24" gradientUnits="userSpaceOnUse" y1="6.9231" gradientTransform="matrix(.24324 0 0 .35135 2.1622 -.43243)" x2="24" y2="41.077">
   <stop stop-color="#fff" offset="0"/>
   <stop stop-color="#fff" stop-opacity=".23529" offset="0"/>
   <stop stop-color="#fff" stop-opacity=".15686" offset="1"/>
   <stop stop-color="#fff" stop-opacity=".39216" offset="1"/>
  </linearGradient>
  <linearGradient id="linearGradient3940" x1="25.132" gradientUnits="userSpaceOnUse" y1=".98521" gradientTransform="matrix(.28571 0 0 .30420 1.1429 .23260)" x2="25.132" y2="47.013">
   <stop stop-color="#f4f4f4" offset="0"/>
   <stop stop-color="#dbdbdb" offset="1"/>
  </linearGradient>
 </defs>
 <metadata>
  <rdf:RDF>
   <cc:Work rdf:about="">
    <dc:format>image/svg+xml</dc:format>
    <dc:type rdf:resource="http://purl.org/dc/dcmitype/StillImage"/>
    <dc:title/>
   </cc:Work>
  </rdf:RDF>
 </metadata>
 <g transform="translate(-2)">
  <path d="m3 1c2.2915 0 10 0.0008904 10 0.0008904v13.999h-10v-14z" fill="url(#linearGradient3940)"/>
  <path d="m12.5 14.5h-9v-13h9z" stroke="url(#linearGradient3095)" stroke-linecap="round" fill="none"/>
  <path stroke-linejoin="round" d="m2.5 0.49997c2.5207 0 11 0.000954 11 0.000954l0.000013 14.999h-11c0-5 0-10 1e-7 -15z" stroke="url(#linearGradient3092)" stroke-width=".99992" fill="none"/>
 </g>
 <g transform="matrix(.69122 0 0 .69122 4.036 5.036)">
  <path d="m3.3431 14.397c0.0073 0.35961 0.029665 0.91477 0.34211 0.99126 3.3006 0.01952 6.6179-0.01415 9.9189-0.0086 0.34064 0.01588 0.35312-0.62103 0.34211-0.99966l-10.603 0.01695z" stroke="#565656" stroke-linecap="square" stroke-width=".99971" fill="#505050"/>
  <g stroke-linecap="round">
   <path d="m0.79903 6.5559 0.74747-3.0509 14.12 0.0196 0.714 3.0637z" fill-rule="evenodd" fill="#4f4f4f"/>
   <path d="m1.377 6.5169 14.453 0.015984c0.40177 0.0004443 0.72577 0.34771 0.72523 0.77962l-0.008 6.3873-15.903-0.016 0.00781-6.3875c0.00054-0.4319 0.32345-0.78 0.72519-0.7796z" fill="#4f4f4f"/>
   <path opacity="0.71" stroke-linejoin="round" d="m1.377 6.5169 14.453 0.015984c0.40177 0.0004443 0.72577 0.34771 0.72523 0.77962l-0.008 6.3873-15.903-0.016 0.00781-6.3875c0.00054-0.4319 0.32345-0.78 0.72519-0.7796z" stroke="#393939" stroke-width="1.4467" fill="none"/>
   <rect style="color:#000000" height="1.4467" width="1.4467" y="7.1815" x="11.522" fill="#0cceff"/>
   <path opacity=".7" d="m0.79903 6.5559 0.74747-3.0509 14.12 0.0196 0.714 3.0637z" stroke="#393939" stroke-linecap="butt" stroke-width="1.4467" fill="none"/>
  </g>
  <path d="m13.959 10.075-0.000239 4.7192c-0.000014 0.27348-0.06969 0.49364-0.15625 0.49364h-10.308c-0.086562 0-0.15626-0.22016-0.15625-0.49364l0.0002391-4.7192z" stroke-width="1.9872" fill="#e9e9e9"/>
  <path stroke-linejoin="round" d="m3.5803-0.76389 10.115-0.00956-0.01 6.118-10.115 0.0113z" stroke="#8c8c8c" stroke-width="1.4467" fill="#e9e9e9"/>
 </g>
</svg>
